icons/phone-outline.svg

<svg width="24" height="24" viewBox="0 0 24 24" fill="none" xmlns="http://www.w3.org/2000/svg">
<path d="M15.678 13.368C16.313 13.078 16.942 13.183 16.942 13.183C18.528 13.484 19.682 13.706 20.405 13.849C20.405 13.849 21.132 13.945 21.604 14.586C22.075 15.226 22.015 15.811 22.015 15.811V20C22.015 21.336 21.37 22.002 20.079 21.999C19.9207 22.0197 19.7615 22.0327 19.602 22.038C14.397 22.038 10.233 20.51 7.20799 17.485C3.48499 13.762 1.75799 9.249 2.02799 3.947C2.01799 2.649 2.68399 2 4.02499 2C5.06199 2 6.46999 2 8.24799 2.002C8.24799 2.002 8.96199 1.958 9.54699 2.478C10.132 2.998 10.211 3.632 10.211 3.632C10.348 4.355 10.554 5.517 10.831 7.117C10.831 7.117 10.965 7.772 10.641 8.358C10.4267 8.72659 10.1203 9.03325 9.75199 9.248L9.17799 9.537C9.59899 10.923 10.908 13.938 14.469 14.863L14.786 14.24C14.786 14.24 15.042 13.659 15.676 13.368H15.678ZM20.026 20.034V15.819L16.576 15.13L16.209 15.857C16.109 16.055 15.996 16.378 15.46 16.638C14.925 16.898 14.235 16.816 14.235 16.816C13.8907 16.7693 13.5522 16.6869 13.225 16.57C9.51199 15.263 7.74099 11.975 7.17499 9.826C7.05944 9.43736 7.09112 9.01976 7.26399 8.653C7.50399 8.144 7.93099 7.925 8.11099 7.834L8.88799 7.446L8.20499 4H4.02799C4.10099 6.276 4.68999 12.147 8.63099 16.08C11.344 18.788 15.171 20.133 20.026 20.034Z" fill="#3A3A47"/>
</svg>

<svg xmlns="http://www.w3.org/2000/svg" width="24" height="24" viewBox="0 0 24 24">
    <path fill="#3A3A47" fill-rule="evenodd" d="M4.026 2c1.037 0 2.445 0 4.223.002 0 0 .714-.044 1.299.476s.664 1.154.664 1.154c.137.723.343 1.885.62 3.485 0 0 .134.655-.19 1.241a2.464 2.464 0 0 1-.889.89l-.574.289c.421 1.386 1.73 4.401 5.291 5.326l.317-.623s.256-.581.89-.872c.636-.29 1.265-.185 1.265-.185 1.586.301 2.74.523 3.463.666 0 0 .727.096 1.199.737.471.64.411 1.225.411 1.225V20c0 1.336-.645 2.002-1.936 1.999a4.925 4.925 0 0 1-.477.039c-5.205 0-9.369-1.528-12.394-4.553-3.723-3.723-5.45-8.236-5.18-13.538C2.018 2.649 2.684 2 4.025 2zm4.18 2H4.027c.073 2.276.662 8.147 4.603 12.08 2.713 2.708 6.54 4.053 11.395 3.954v-4.215l-3.45-.689-.367.727c-.1.198-.213.521-.749.781-.459.223-1.031.195-1.186.182l-.04-.004a4.996 4.996 0 0 1-1.01-.246c-3.712-1.307-5.483-4.595-6.049-6.744a1.649 1.649 0 0 1 .089-1.173c.24-.509.667-.728.847-.819l.777-.388L8.205 4z"/>
</svg>
